epam-assets/icon-sources/18/internal-logo/booking.svg

<svg width="18" height="18" viewBox="0 0 18 18" fill="none" xmlns="http://www.w3.org/2000/svg">
<g id="18/internal-logo/booking">
<g id="icon">
<path fill-rule="evenodd" clip-rule="evenodd" d="M3.03852 7.83084H2.49314V16.3523H15.5823V7.83084H15.0369V15.807H3.03852V7.83084Z" fill="#6C6F80"/>
<path fill-rule="evenodd" clip-rule="evenodd" d="M3.18852 7.68084V15.657H14.8869V7.68084H15.7323V16.5023H2.34314V7.68084H3.18852ZM15.0369 7.83084H15.5823V16.3523H2.49314V7.83084H3.03852V15.807H15.0369V7.83084Z" fill="#6C6F80"/>
<path fill-rule="evenodd" clip-rule="evenodd" d="M9.92388 3.41077H8.15159V3.95615H9.92388V3.41077ZM14.1508 3.95615H15.0369V6.13768H3.03852V3.95615H3.92467V3.41077H2.49314V6.68306H15.5823V3.41077H14.1508V3.95615Z" fill="#6C6F80"/>
<path fill-rule="evenodd" clip-rule="evenodd" d="M10.0739 3.26077V4.10615H8.00159V3.26077H10.0739ZM14.0008 4.10615V3.26077H15.7323V6.83306H2.34314V3.26077H4.07467V4.10615H3.18852V5.98768H14.8869V4.10615H14.0008ZM3.92467 3.95615H3.03852V6.13768H15.0369V3.95615H14.1508V3.41077H15.5823V6.68306H2.49314V3.41077H3.92467V3.95615ZM8.15159 3.41077H9.92388V3.95615H8.15159V3.41077Z" fill="#6C6F80"/>
<path d="M6.8561 2.59261C6.8561 2.1408 6.48983 1.77454 6.03802 1.77454C5.58621 1.77454 5.21995 2.1408 5.21995 2.59261V4.22876C5.21995 4.68057 5.58621 5.04683 6.03802 5.04683C6.48983 5.04683 6.8561 4.68057 6.8561 4.22876V2.59261Z" fill="#6C6F80"/>
<path fill-rule="evenodd" clip-rule="evenodd" d="M6.03802 2.05579C5.74154 2.05579 5.5012 2.29613 5.5012 2.59261V4.22876C5.5012 4.52524 5.74154 4.76558 6.03802 4.76558C6.3345 4.76558 6.57485 4.52524 6.57485 4.22876V2.59261C6.57485 2.29613 6.3345 2.05579 6.03802 2.05579ZM4.9387 2.59261C4.9387 1.98547 5.43088 1.49329 6.03802 1.49329C6.64516 1.49329 7.13735 1.98547 7.13735 2.59261V4.22876C7.13735 4.8359 6.64516 5.32808 6.03802 5.32808C5.43088 5.32808 4.9387 4.8359 4.9387 4.22876V2.59261Z" fill="#6C6F80"/>
<path d="M12.8554 2.59261C12.8554 2.1408 12.4891 1.77454 12.0373 1.77454C11.5855 1.77454 11.2192 2.1408 11.2192 2.59261V4.22876C11.2192 4.68057 11.5855 5.04683 12.0373 5.04683C12.4891 5.04683 12.8554 4.68057 12.8554 4.22876V2.59261Z" fill="#6C6F80"/>
<path fill-rule="evenodd" clip-rule="evenodd" d="M12.0373 2.05579C11.7408 2.05579 11.5005 2.29613 11.5005 2.59261V4.22876C11.5005 4.52524 11.7408 4.76558 12.0373 4.76558C12.3338 4.76558 12.5741 4.52524 12.5741 4.22876V2.59261C12.5741 2.29613 12.3338 2.05579 12.0373 2.05579ZM10.938 2.59261C10.938 1.98547 11.4301 1.49329 12.0373 1.49329C12.6444 1.49329 13.1366 1.98547 13.1366 2.59261V4.22876C13.1366 4.8359 12.6444 5.32808 12.0373 5.32808C11.4301 5.32808 10.938 4.8359 10.938 4.22876V2.59261Z" fill="#6C6F80"/>
<path fill-rule="evenodd" clip-rule="evenodd" d="M11.2192 8.06311L12.5661 9.41004L8.21959 13.7566L5.50925 11.0462L6.85613 9.69926L8.21959 11.0627L11.2192 8.06311Z" fill="#6C6F80"/>
<path d="M11.2192 7.66536L12.9639 9.41004L8.21959 14.1543L5.11151 11.0462L6.85613 9.3015L8.21959 10.665L11.2192 7.66536Z" fill="#6C6F80"/>
</g>
</g>
</svg>

<svg xmlns="http://www.w3.org/2000/svg" width="18" height="18" fill="none" viewBox="0 0 18 18">
  <path fill="#6C6F80" fill-rule="evenodd" d="M3.039 7.83h-.546v8.522h13.09V7.831h-.546v7.976H3.039V7.831Z" clip-rule="evenodd"/>
  <path fill="#6C6F80" fill-rule="evenodd" d="M3.189 7.68v7.977h11.698V7.681h.845v8.821H2.343V7.681h.846Zm11.848.15h.545v8.522H2.493V7.831h.546v7.976h11.998V7.831ZM9.924 3.41H8.152v.546h1.772v-.545Zm4.227.546h.886v2.182H3.039V3.956h.886v-.545H2.493v3.272h13.09V3.411H14.15v.545Z" clip-rule="evenodd"/>
  <path fill="#6C6F80" fill-rule="evenodd" d="M10.074 3.26v.846H8.002v-.845h2.072ZM14 4.107v-.845h1.731v3.572H2.343V3.261h1.732v.845h-.886v1.882h11.698V4.106H14Zm-10.076-.15h-.886v2.182h11.998V3.956h-.886v-.545h1.431v3.272H2.493V3.411h1.432v.545Zm4.227-.545h1.772v.545H8.152v-.545Z" clip-rule="evenodd"/>
  <path fill="#6C6F80" d="M6.856 2.593a.818.818 0 0 0-1.636 0v1.636a.818.818 0 1 0 1.636 0V2.593Z"/>
  <path fill="#6C6F80" fill-rule="evenodd" d="M6.038 2.056a.537.537 0 0 0-.537.537v1.636a.537.537 0 1 0 1.074 0V2.593a.537.537 0 0 0-.537-.537Zm-1.1.537a1.1 1.1 0 1 1 2.2 0v1.636a1.1 1.1 0 0 1-2.2 0V2.593Z" clip-rule="evenodd"/>
  <path fill="#6C6F80" d="M12.855 2.593a.818.818 0 0 0-1.636 0v1.636a.818.818 0 0 0 1.636 0V2.593Z"/>
  <path fill="#6C6F80" fill-rule="evenodd" d="M12.037 2.056a.537.537 0 0 0-.537.537v1.636a.537.537 0 1 0 1.074 0V2.593a.537.537 0 0 0-.537-.537Zm-1.099.537a1.1 1.1 0 1 1 2.199 0v1.636a1.1 1.1 0 0 1-2.199 0V2.593Zm.282 5.47 1.346 1.347-4.346 4.347-2.71-2.71 1.346-1.348 1.364 1.364 3-3Z" clip-rule="evenodd"/>
  <path fill="#6C6F80" d="m11.22 7.665 1.744 1.745-4.744 4.744-3.108-3.108 1.744-1.744 1.364 1.363 3-3Z"/>
</svg>
